packages/webapp/public/images/template-logos/stripe.svg

<svg width="62" height="62" viewBox="0 0 62 62" fill="none" xmlns="http://www.w3.org/2000/svg">
<g clip-path="url(#clip0_496_1322)">
<path fill-rule="evenodd" clip-rule="evenodd" d="M28.1 22.248C28.1 20.3828 29.6304 19.6654 32.1652 19.6654C35.8 19.6654 40.3913 20.7654 44.0261 22.7262V11.4871C40.0565 9.90885 36.1348 9.28711 32.1652 9.28711C22.4565 9.28711 16 14.3567 16 22.8219C16 36.0219 34.1739 33.9175 34.1739 39.6088C34.1739 41.8088 32.2609 42.5262 29.5826 42.5262C25.613 42.5262 20.5435 40.9002 16.5261 38.7002V50.0828C20.9739 51.9958 25.4696 52.8089 29.5826 52.8089C39.5304 52.8089 46.3696 47.8828 46.3696 39.3219C46.3217 25.0697 28.1 27.6045 28.1 22.248Z" fill="#635BFF"/>
</g>
<defs>
<clipPath id="clip0_496_1322">
<rect width="30.6087" height="44" fill="white" transform="translate(16 9)"/>
</clipPath>
</defs>
</svg>

<svg xmlns="http://www.w3.org/2000/svg" width="62" height="62" fill="none"><g clip-path="url(#A)"><path fill-rule="evenodd" d="M28.1 22.248c0-1.865 1.53-2.583 4.065-2.583 3.635 0 8.226 1.1 11.861 3.061V11.487c-3.97-1.578-7.891-2.2-11.861-2.2C22.457 9.287 16 14.357 16 22.822c0 13.2 18.174 11.096 18.174 16.787 0 2.2-1.913 2.917-4.591 2.917-3.97 0-9.039-1.626-13.056-3.826v11.383c4.448 1.913 8.944 2.726 13.057 2.726 9.948 0 16.787-4.926 16.787-13.487C46.322 25.07 28.1 27.605 28.1 22.248z" fill="#635bff"/></g><defs><clipPath id="A"><path fill="#fff" transform="translate(16 9)" d="M0 0h30.609v44H0z"/></clipPath></defs></svg>
